Newaita-dark/apps/22/preferences-desktop-notification-bell.svg

<svg height="22" viewBox="0 0 22 22" width="22" xmlns="http://www.w3.org/2000/svg" xmlns:xlink="http://www.w3.org/1999/xlink"><linearGradient id="a"><stop offset="0" stop-opacity=".313726"/><stop offset=".222222" stop-opacity=".27451"/><stop offset="1" stop-opacity="0"/></linearGradient><radialGradient id="b" cx="450.908936" cy="189.579361" gradientTransform="matrix(.00000012 -.0537161 -.0966889 -.00000007 29.245278 43.72179)" gradientUnits="userSpaceOnUse" r="21.166656" xlink:href="#a"/><radialGradient id="c" cx="450.908936" cy="189.579361" gradientTransform="matrix(-.00000012 .0537161 .0966889 .00000007 -7.415069 -5.175143)" gradientUnits="userSpaceOnUse" r="21.166656" xlink:href="#a"/><radialGradient id="d" cx="450.908936" cy="189.579361" gradientTransform="matrix(-.00000012 -.0537161 .0966889 -.00000007 -7.415069 43.72179)" gradientUnits="userSpaceOnUse" r="21.166656" xlink:href="#a"/><radialGradient id="e" cx="450.908936" cy="189.579361" gradientTransform="matrix(.00000012 .0537161 -.0966889 .00000007 29.245276 -5.175144)" gradientUnits="userSpaceOnUse" r="21.166656" xlink:href="#a"/><linearGradient id="f" gradientTransform="matrix(.00918505 0 0 .0343397 8.56995 11.437737)" gradientUnits="userSpaceOnUse" x1="255.322968" x2="255.323044" y1="228.178589" y2="254.666656"><stop offset="0" stop-opacity=".27451"/><stop offset="1" stop-opacity="0"/></linearGradient><linearGradient id="g"><stop offset="0" stop-color="#ffa726"/><stop offset="1" stop-color="#ffb74d"/></linearGradient><linearGradient id="h" gradientUnits="userSpaceOnUse" x1="11.82470919162" x2="11.82470919162" xlink:href="#g" y1="17.45414927919" y2="19.27333515"/><linearGradient id="i" gradientUnits="userSpaceOnUse" x1="10.46032030419" x2="10.46032030419" xlink:href="#g" y1="4.71984612081" y2="1.99106765838"/><linearGradient id="j" gradientUnits="userSpaceOnUse" x1="10.915104" x2="10.915104" xlink:href="#g" y1="19.27332401286" y2="1.99107567177"/><path d="m11.140625 19.273438h1.820313v-.910157h-1.820313zm0 0" fill="url(#b)"/><path d="m10.6875 19.273438h-1.820312v.910156h1.820312zm0 0" fill="url(#c)"/><path d="m10.6875 19.273438h-1.820312v-.910157h1.820312zm0 0" fill="url(#d)"/><path d="m11.140625 19.273438h1.820313v.910156h-1.820313zm0 0" fill="url(#e)"/><path d="m10.6875 19.273438h.453125v.910156h-.453125zm0 0" fill="url(#f)"/><path d="m10.914062 15.636719c1.003907 0 1.820313.8125 1.820313 1.816406s-.816406 1.820313-1.820313 1.820313c-1.003906 0-1.816406-.816407-1.816406-1.820313s.8125-1.816406 1.816406-1.816406zm0 0" fill="url(#h)"/><path d="m9.105469 17.285156c-.007813.054688-.007813.113282-.007813.167969 0 1.007813.808594 1.820313 1.816406 1.820313 1.007813 0 1.820313-.8125 1.820313-1.820313 0-.054687-.003906-.113281-.007813-.167969-.085937.925782-.859374 1.648438-1.8125 1.648438-.949218 0-1.726562-.722656-1.808593-1.648438zm0 0" fill-opacity=".235294"/><path d="m253.975747 148.874343c23.361405 0 42.359591 18.907285 42.359591 42.26869 0 23.361406-18.998186 42.359592-42.359591 42.359592-23.361406 0-42.268691-18.998186-42.268691-42.359592 0-23.361405 18.907285-42.26869 42.268691-42.26869zm0 0" fill="none" stroke="#212121" stroke-linecap="round" stroke-linejoin="round" stroke-width="3" transform="matrix(.0429729 0 0 .0429729 0 9.239163)"/><path d="m10.914062 1.992188c.503907 0 .910157.40625.910157.910156v.90625c0 .503906-.40625.910156-.910157.910156-.5 0-.910156-.40625-.910156-.910156v-.90625c0-.503906.410156-.910156.910156-.910156zm0 0" fill="url(#i)"/><path d="m10.914062 1.992188c-.503906 0-.910156.40625-.910156.910156v.339844c0-.503907.40625-.910157.910156-.910157.503907 0 .910157.40625.910157.910157v-.339844c0-.503906-.40625-.910156-.910157-.910156zm0 0" fill="#fff" fill-opacity=".392157"/><path d="m253.975747-168.640791c11.726152 0 21.179795 9.453643 21.179795 21.179796v21.088895c0 11.726153-9.453643 21.179796-21.179795 21.179796-11.635253 0-21.179796-9.453643-21.179796-21.179796v-21.088895c0-11.726153 9.544543-21.179796 21.179796-21.179796zm0 0" fill="none" stroke="#212121" stroke-linecap="round" stroke-linejoin="round" stroke-width="3" transform="matrix(.0429729 0 0 .0429729 0 9.239163)"/><path d="m10.914062 2.902344c-3.023437 0-5.457031 2.433594-5.457031 5.457031v5.230469l-1.664062 2.492187c-.398438.601563.03125 1.40625.753906 1.40625h12.734375c.722656 0 1.15625-.804687.753906-1.40625l-1.664062-2.492187v-5.230469c0-3.023437-2.433594-5.457031-5.457032-5.457031zm0 0" fill="url(#j)"/><path d="m10.914062 2.902344c-3.023437 0-5.457031 2.433594-5.457031 5.457031v.226563c0-3.023438 2.433594-5.457032 5.457031-5.457032 3.023438 0 5.457032 2.433594 5.457032 5.457032v-.226563c0-3.023437-2.433594-5.457031-5.457032-5.457031zm-5.457031 10.6875-1.664062 2.492187c-.128907.195313-.171875.410157-.144531.613281.015624-.132812.0625-.261718.144531-.386718l1.664062-2.492188zm10.914063 0v.226562l1.664062 2.492188c.082032.125.128906.253906.144532.386718.027343-.203124-.015626-.417968-.144532-.613281zm0 0" fill="#fff" fill-opacity=".392157"/><path d="m3.648438 16.46875c-.066407.511719.324218 1.019531.898437 1.019531h12.734375c.578125 0 .964844-.507812.898438-1.019531-.050782.425781-.40625.792969-.898438.792969h-12.734375c-.488281 0-.84375-.367188-.898437-.792969zm0 0" fill-opacity=".235294"/><path d="m959.908384 255.265544c-265.915923 0-479.954192 214.038269-479.954192 479.954192v460.027675l-146.356826 219.191679c-35.043184 52.908336 2.748485 123.681824 66.3072 123.681824h1120.007635c63.558716 0 101.693945-70.773488 66.307201-123.681824l-146.356826-219.191679v-460.027675c0-265.915923-214.038269-479.954192-479.954192-479.954192zm0 0" fill="none" stroke="#212121" stroke-linecap="round" stroke-linejoin="round" stroke-width="11.338583" transform="scale(.0113699)"/><path d="m9.097656 17.566406c.007813.078125.015625.152344.03125.226563h3.574219c.011719-.074219.023437-.148438.027344-.226563zm0 0" fill-opacity=".235294"/><path d="m9.230469 4.605469c.328125.1875.285156.871093-.089844 1.523437s-.945313 1.027344-1.273437.839844c-.324219-.1875-.285157-.871094.089843-1.523438.378907-.652343.949219-1.027343 1.273438-.839843zm0 0" fill="#fff" fill-opacity=".196078"/></svg>

<?xml version="1.0" encoding="UTF-8"?>
<svg xmlns="http://www.w3.org/2000/svg" xmlns:xlink="http://www.w3.org/1999/xlink" width="22px" height="22px" viewBox="0 0 22 22" version="1.1">
<defs>
<radialGradient id="radial0" gradientUnits="userSpaceOnUse" cx="450.908936" cy="189.579361" fx="450.908936" fy="189.579361" r="21.166656" gradientTransform="matrix(0.000000119742,-0.0537161,-0.0966889,-0.0000000698078,29.245278,43.72179)">
<stop offset="0" style="stop-color:rgb(0%,0%,0%);stop-opacity:0.313726;"/>
<stop offset="0.222222" style="stop-color:rgb(0%,0%,0%);stop-opacity:0.27451;"/>
<stop offset="1" style="stop-color:rgb(0%,0%,0%);stop-opacity:0;"/>
</radialGradient>
<radialGradient id="radial1" gradientUnits="userSpaceOnUse" cx="450.908936" cy="189.579361" fx="450.908936" fy="189.579361" r="21.166656" gradientTransform="matrix(-0.000000119742,0.0537161,0.0966889,0.0000000698078,-7.415069,-5.175143)">
<stop offset="0" style="stop-color:rgb(0%,0%,0%);stop-opacity:0.313726;"/>
<stop offset="0.222222" style="stop-color:rgb(0%,0%,0%);stop-opacity:0.27451;"/>
<stop offset="1" style="stop-color:rgb(0%,0%,0%);stop-opacity:0;"/>
</radialGradient>
<radialGradient id="radial2" gradientUnits="userSpaceOnUse" cx="450.908936" cy="189.579361" fx="450.908936" fy="189.579361" r="21.166656" gradientTransform="matrix(-0.000000119742,-0.0537161,0.0966889,-0.0000000698078,-7.415069,43.72179)">
<stop offset="0" style="stop-color:rgb(0%,0%,0%);stop-opacity:0.313726;"/>
<stop offset="0.222222" style="stop-color:rgb(0%,0%,0%);stop-opacity:0.27451;"/>
<stop offset="1" style="stop-color:rgb(0%,0%,0%);stop-opacity:0;"/>
</radialGradient>
<radialGradient id="radial3" gradientUnits="userSpaceOnUse" cx="450.908936" cy="189.579361" fx="450.908936" fy="189.579361" r="21.166656" gradientTransform="matrix(0.000000119742,0.0537161,-0.0966889,0.0000000698078,29.245276,-5.175144)">
<stop offset="0" style="stop-color:rgb(0%,0%,0%);stop-opacity:0.313726;"/>
<stop offset="0.222222" style="stop-color:rgb(0%,0%,0%);stop-opacity:0.27451;"/>
<stop offset="1" style="stop-color:rgb(0%,0%,0%);stop-opacity:0;"/>
</radialGradient>
<linearGradient id="linear0" gradientUnits="userSpaceOnUse" x1="255.322968" y1="228.178589" x2="255.323044" y2="254.666656" gradientTransform="matrix(0.00918505,0,0,0.0343397,8.56995,11.437737)">
<stop offset="0" style="stop-color:rgb(0%,0%,0%);stop-opacity:0.27451;"/>
<stop offset="1" style="stop-color:rgb(0%,0%,0%);stop-opacity:0;"/>
</linearGradient>
<linearGradient id="linear1" gradientUnits="userSpaceOnUse" x1="275.166656" y1="191.166672" x2="275.166656" y2="233.5" gradientTransform="matrix(0.0429729,0,0,0.0429729,0,9.239163)">
<stop offset="0" style="stop-color:rgb(100%,65.490198%,14.901961%);stop-opacity:1;"/>
<stop offset="1" style="stop-color:rgb(100%,71.764708%,30.19608%);stop-opacity:1;"/>
</linearGradient>
<linearGradient id="linear2" gradientUnits="userSpaceOnUse" x1="243.416672" y1="-105.166672" x2="243.416672" y2="-168.666656" gradientTransform="matrix(0.0429729,0,0,0.0429729,0,9.239163)">
<stop offset="0" style="stop-color:rgb(100%,65.490198%,14.901961%);stop-opacity:1;"/>
<stop offset="1" style="stop-color:rgb(100%,71.764708%,30.19608%);stop-opacity:1;"/>
</linearGradient>
<linearGradient id="linear3" gradientUnits="userSpaceOnUse" x1="960" y1="1695.118164" x2="960" y2="175.118134" gradientTransform="matrix(0.0113699,0,0,0.0113699,0,0)">
<stop offset="0" style="stop-color:rgb(100%,65.490198%,14.901961%);stop-opacity:1;"/>
<stop offset="1" style="stop-color:rgb(100%,71.764708%,30.19608%);stop-opacity:1;"/>
</linearGradient>
</defs>
<g id="surface1">
<path style=" stroke:none;fill-rule:nonzero;fill:url(#radial0);" d="M 11.140625 19.273438 L 12.960938 19.273438 L 12.960938 18.363281 L 11.140625 18.363281 Z M 11.140625 19.273438 "/>
<path style=" stroke:none;fill-rule:nonzero;fill:url(#radial1);" d="M 10.6875 19.273438 L 8.867188 19.273438 L 8.867188 20.183594 L 10.6875 20.183594 Z M 10.6875 19.273438 "/>
<path style=" stroke:none;fill-rule:nonzero;fill:url(#radial2);" d="M 10.6875 19.273438 L 8.867188 19.273438 L 8.867188 18.363281 L 10.6875 18.363281 Z M 10.6875 19.273438 "/>
<path style=" stroke:none;fill-rule:nonzero;fill:url(#radial3);" d="M 11.140625 19.273438 L 12.960938 19.273438 L 12.960938 20.183594 L 11.140625 20.183594 Z M 11.140625 19.273438 "/>
<path style=" stroke:none;fill-rule:nonzero;fill:url(#linear0);" d="M 10.6875 19.273438 L 11.140625 19.273438 L 11.140625 20.183594 L 10.6875 20.183594 Z M 10.6875 19.273438 "/>
<path style=" stroke:none;fill-rule:nonzero;fill:url(#linear1);" d="M 10.914062 15.636719 C 11.917969 15.636719 12.734375 16.449219 12.734375 17.453125 C 12.734375 18.457031 11.917969 19.273438 10.914062 19.273438 C 9.910156 19.273438 9.097656 18.457031 9.097656 17.453125 C 9.097656 16.449219 9.910156 15.636719 10.914062 15.636719 Z M 10.914062 15.636719 "/>
<path style=" stroke:none;fill-rule:nonzero;fill:rgb(0%,0%,0%);fill-opacity:0.235294;" d="M 9.105469 17.285156 C 9.097656 17.339844 9.097656 17.398438 9.097656 17.453125 C 9.097656 18.460938 9.90625 19.273438 10.914062 19.273438 C 11.921875 19.273438 12.734375 18.460938 12.734375 17.453125 C 12.734375 17.398438 12.730469 17.339844 12.726562 17.285156 C 12.640625 18.210938 11.867188 18.933594 10.914062 18.933594 C 9.964844 18.933594 9.1875 18.210938 9.105469 17.285156 Z M 9.105469 17.285156 "/>
<path style="fill:none;stroke-width:3;stroke-linecap:round;stroke-linejoin:round;stroke:rgb(12.941177%,12.941177%,12.941177%);stroke-opacity:1;stroke-miterlimit:4;" d="M 253.975747 148.874343 C 277.337152 148.874343 296.335338 167.781628 296.335338 191.143033 C 296.335338 214.504439 277.337152 233.502625 253.975747 233.502625 C 230.614341 233.502625 211.707056 214.504439 211.707056 191.143033 C 211.707056 167.781628 230.614341 148.874343 253.975747 148.874343 Z M 253.975747 148.874343 " transform="matrix(0.0429729,0,0,0.0429729,0,9.239163)"/>
<path style=" stroke:none;fill-rule:nonzero;fill:url(#linear2);" d="M 10.914062 1.992188 C 11.417969 1.992188 11.824219 2.398438 11.824219 2.902344 L 11.824219 3.808594 C 11.824219 4.3125 11.417969 4.71875 10.914062 4.71875 C 10.414062 4.71875 10.003906 4.3125 10.003906 3.808594 L 10.003906 2.902344 C 10.003906 2.398438 10.414062 1.992188 10.914062 1.992188 Z M 10.914062 1.992188 "/>
<path style=" stroke:none;fill-rule:nonzero;fill:rgb(100%,100%,100%);fill-opacity:0.392157;" d="M 10.914062 1.992188 C 10.410156 1.992188 10.003906 2.398438 10.003906 2.902344 L 10.003906 3.242188 C 10.003906 2.738281 10.410156 2.332031 10.914062 2.332031 C 11.417969 2.332031 11.824219 2.738281 11.824219 3.242188 L 11.824219 2.902344 C 11.824219 2.398438 11.417969 1.992188 10.914062 1.992188 Z M 10.914062 1.992188 "/>
<path style="fill:none;stroke-width:3;stroke-linecap:round;stroke-linejoin:round;stroke:rgb(12.941177%,12.941177%,12.941177%);stroke-opacity:1;stroke-miterlimit:4;" d="M 253.975747 -168.640791 C 265.701899 -168.640791 275.155542 -159.187148 275.155542 -147.460995 L 275.155542 -126.3721 C 275.155542 -114.645947 265.701899 -105.192304 253.975747 -105.192304 C 242.340494 -105.192304 232.795951 -114.645947 232.795951 -126.3721 L 232.795951 -147.460995 C 232.795951 -159.187148 242.340494 -168.640791 253.975747 -168.640791 Z M 253.975747 -168.640791 " transform="matrix(0.0429729,0,0,0.0429729,0,9.239163)"/>
<path style=" stroke:none;fill-rule:nonzero;fill:url(#linear3);" d="M 10.914062 2.902344 C 7.890625 2.902344 5.457031 5.335938 5.457031 8.359375 L 5.457031 13.589844 L 3.792969 16.082031 C 3.394531 16.683594 3.824219 17.488281 4.546875 17.488281 L 17.28125 17.488281 C 18.003906 17.488281 18.4375 16.683594 18.035156 16.082031 L 16.371094 13.589844 L 16.371094 8.359375 C 16.371094 5.335938 13.9375 2.902344 10.914062 2.902344 Z M 10.914062 2.902344 "/>
<path style=" stroke:none;fill-rule:nonzero;fill:rgb(100%,100%,100%);fill-opacity:0.392157;" d="M 10.914062 2.902344 C 7.890625 2.902344 5.457031 5.335938 5.457031 8.359375 L 5.457031 8.585938 C 5.457031 5.5625 7.890625 3.128906 10.914062 3.128906 C 13.9375 3.128906 16.371094 5.5625 16.371094 8.585938 L 16.371094 8.359375 C 16.371094 5.335938 13.9375 2.902344 10.914062 2.902344 Z M 5.457031 13.589844 L 3.792969 16.082031 C 3.664062 16.277344 3.621094 16.492188 3.648438 16.695312 C 3.664062 16.5625 3.710938 16.433594 3.792969 16.308594 L 5.457031 13.816406 Z M 16.371094 13.589844 L 16.371094 13.816406 L 18.035156 16.308594 C 18.117188 16.433594 18.164062 16.5625 18.179688 16.695312 C 18.207031 16.492188 18.164062 16.277344 18.035156 16.082031 Z M 16.371094 13.589844 "/>
<path style=" stroke:none;fill-rule:nonzero;fill:rgb(0%,0%,0%);fill-opacity:0.235294;" d="M 3.648438 16.46875 C 3.582031 16.980469 3.972656 17.488281 4.546875 17.488281 L 17.28125 17.488281 C 17.859375 17.488281 18.246094 16.980469 18.179688 16.46875 C 18.128906 16.894531 17.773438 17.261719 17.28125 17.261719 L 4.546875 17.261719 C 4.058594 17.261719 3.703125 16.894531 3.648438 16.46875 Z M 3.648438 16.46875 "/>
<path style="fill:none;stroke-width:11.338583;stroke-linecap:round;stroke-linejoin:round;stroke:rgb(12.941177%,12.941177%,12.941177%);stroke-opacity:1;stroke-miterlimit:4;" d="M 959.908384 255.265544 C 693.992461 255.265544 479.954192 469.303813 479.954192 735.219736 L 479.954192 1195.247411 L 333.597366 1414.43909 C 298.554182 1467.347426 336.345851 1538.120914 399.904566 1538.120914 L 1519.912201 1538.120914 C 1583.470917 1538.120914 1621.606146 1467.347426 1586.219402 1414.43909 L 1439.862576 1195.247411 L 1439.862576 735.219736 C 1439.862576 469.303813 1225.824307 255.265544 959.908384 255.265544 Z M 959.908384 255.265544 " transform="matrix(0.0113699,0,0,0.0113699,0,0)"/>
<path style=" stroke:none;fill-rule:nonzero;fill:rgb(0%,0%,0%);fill-opacity:0.235294;" d="M 9.097656 17.566406 C 9.105469 17.644531 9.113281 17.71875 9.128906 17.792969 L 12.703125 17.792969 C 12.714844 17.71875 12.726562 17.644531 12.730469 17.566406 Z M 9.097656 17.566406 "/>
<path style=" stroke:none;fill-rule:nonzero;fill:rgb(100%,100%,100%);fill-opacity:0.196078;" d="M 9.230469 4.605469 C 9.558594 4.792969 9.515625 5.476562 9.140625 6.128906 C 8.765625 6.78125 8.195312 7.15625 7.867188 6.96875 C 7.542969 6.78125 7.582031 6.097656 7.957031 5.445312 C 8.335938 4.792969 8.90625 4.417969 9.230469 4.605469 Z M 9.230469 4.605469 "/>
</g>
</svg>
